src/img/burger-menu.svg

<svg width="24" height="14" viewBox="0 0 24 14" fill="none" xmlns="http://www.w3.org/2000/svg">
<path d="M0.571289 0H23.4284V2.28571H0.571289V0ZM6.28557 5.71429H23.4284V8H6.28557V5.71429ZM13.4284 11.4286H23.4284V13.7143H13.4284V11.4286Z" fill="#737373"/>
</svg>

<svg width="24" height="14" fill="none" xmlns="http://www.w3.org/2000/svg"><path d="M.571 0h22.857v2.286H.571V0Zm5.715 5.714h17.142V8H6.286V5.714Zm7.142 5.715h10v2.285h-10V11.43Z" fill="#737373"/></svg>
